images/16759251.svg

<?xml version="1.0" encoding="UTF-8"?>
<svg xmlns="http://www.w3.org/2000/svg" xmlns:xlink="http://www.w3.org/1999/xlink" width="300pt" height="300pt" viewBox="0 0 300 300" version="1.1">
<defs>
<g>
<symbol overflow="visible" id="glyph0-0">
<path style="stroke:none;" d="M 0.640625 2.296875 L 0.640625 -9.171875 L 7.140625 -9.171875 L 7.140625 2.296875 Z M 1.375 1.578125 L 6.421875 1.578125 L 6.421875 -8.4375 L 1.375 -8.4375 Z M 1.375 1.578125 "/>
</symbol>
<symbol overflow="visible" id="glyph0-1">
<path style="stroke:none;" d="M 5.125 -8.609375 C 4.1875 -8.609375 3.441406 -8.257812 2.890625 -7.5625 C 2.347656 -6.875 2.078125 -5.929688 2.078125 -4.734375 C 2.078125 -3.535156 2.347656 -2.585938 2.890625 -1.890625 C 3.441406 -1.203125 4.1875 -0.859375 5.125 -0.859375 C 6.050781 -0.859375 6.785156 -1.203125 7.328125 -1.890625 C 7.878906 -2.585938 8.15625 -3.535156 8.15625 -4.734375 C 8.15625 -5.929688 7.878906 -6.875 7.328125 -7.5625 C 6.785156 -8.257812 6.050781 -8.609375 5.125 -8.609375 Z M 5.125 -9.65625 C 6.445312 -9.65625 7.503906 -9.207031 8.296875 -8.3125 C 9.097656 -7.414062 9.5 -6.222656 9.5 -4.734375 C 9.5 -3.234375 9.097656 -2.035156 8.296875 -1.140625 C 7.503906 -0.253906 6.445312 0.1875 5.125 0.1875 C 3.789062 0.1875 2.722656 -0.253906 1.921875 -1.140625 C 1.128906 -2.035156 0.734375 -3.234375 0.734375 -4.734375 C 0.734375 -6.222656 1.128906 -7.414062 1.921875 -8.3125 C 2.722656 -9.207031 3.789062 -9.65625 5.125 -9.65625 Z M 5.125 -9.65625 "/>
</symbol>
<symbol overflow="visible" id="glyph0-2">
<path style="stroke:none;" d="M 1.28125 -9.484375 L 3 -9.484375 L 7.203125 -1.546875 L 7.203125 -9.484375 L 8.453125 -9.484375 L 8.453125 0 L 6.71875 0 L 2.515625 -7.921875 L 2.515625 0 L 1.28125 0 Z M 1.28125 -9.484375 "/>
</symbol>
<symbol overflow="visible" id="glyph0-3">
<path style="stroke:none;" d="M 1.28125 -9.484375 L 2.5625 -9.484375 L 2.5625 -5.59375 L 7.21875 -5.59375 L 7.21875 -9.484375 L 8.5 -9.484375 L 8.5 0 L 7.21875 0 L 7.21875 -4.515625 L 2.5625 -4.515625 L 2.5625 0 L 1.28125 0 Z M 1.28125 -9.484375 "/>
</symbol>
</g>
</defs>
<g id="surface34541">
<rect x="0" y="0" width="300" height="300" style="fill:rgb(100%,100%,100%);fill-opacity:1;stroke:none;"/>
<path style="fill:none;stroke-width:1.2;stroke-linecap:butt;stroke-linejoin:miter;stroke:rgb(0%,0%,0%);stroke-opacity:1;stroke-miterlimit:10;" d="M 264.75 132.542969 L 237.863281 151.394531 "/>
<path style="fill:none;stroke-width:1.2;stroke-linecap:butt;stroke-linejoin:miter;stroke:rgb(0%,0%,0%);stroke-opacity:1;stroke-miterlimit:10;" d="M 234.015625 151.730469 L 235.453125 168.085938 "/>
<path style="fill:none;stroke-width:1.2;stroke-linecap:butt;stroke-linejoin:miter;stroke:rgb(100%,0%,0%);stroke-opacity:1;stroke-miterlimit:10;" d="M 235.453125 168.085938 L 236.894531 184.441406 "/>
<path style="fill:none;stroke-width:1.2;stroke-linecap:butt;stroke-linejoin:miter;stroke:rgb(0%,0%,0%);stroke-opacity:1;stroke-miterlimit:10;" d="M 241.710938 151.054688 L 243.148438 167.410156 "/>
<path style="fill:none;stroke-width:1.2;stroke-linecap:butt;stroke-linejoin:miter;stroke:rgb(100%,0%,0%);stroke-opacity:1;stroke-miterlimit:10;" d="M 243.148438 167.410156 L 244.589844 183.765625 "/>
<path style="fill:none;stroke-width:1.2;stroke-linecap:butt;stroke-linejoin:miter;stroke:rgb(0%,0%,0%);stroke-opacity:1;stroke-miterlimit:10;" d="M 237.863281 151.394531 L 222.976562 144.460938 "/>
<path style="fill:none;stroke-width:1.2;stroke-linecap:butt;stroke-linejoin:miter;stroke:rgb(0%,0%,100%);stroke-opacity:1;stroke-miterlimit:10;" d="M 222.976562 144.460938 L 208.09375 137.53125 "/>
<path style=" stroke:none;fill-rule:nonzero;fill:rgb(100%,100%,100%);fill-opacity:1;" d="M 235.742188 176.101562 L 246.742188 176.101562 L 246.742188 192.101562 L 235.742188 192.101562 Z M 235.742188 176.101562 "/>
<g style="fill:rgb(100%,0%,0%);fill-opacity:1;">
  <use xlink:href="#glyph0-1" x="235.742188" y="188.477539"/>
</g>
<path style="fill:none;stroke-width:1.2;stroke-linecap:butt;stroke-linejoin:miter;stroke:rgb(0%,0%,100%);stroke-opacity:1;stroke-miterlimit:10;" d="M 208.09375 137.53125 L 194.652344 146.957031 "/>
<path style="fill:none;stroke-width:1.2;stroke-linecap:butt;stroke-linejoin:miter;stroke:rgb(0%,0%,0%);stroke-opacity:1;stroke-miterlimit:10;" d="M 194.652344 146.957031 L 181.207031 156.378906 "/>
<path style=" stroke:none;fill-rule:nonzero;fill:rgb(100%,100%,100%);fill-opacity:1;" d="M 198.09375 129.53125 L 218.09375 129.53125 L 218.09375 145.53125 L 198.09375 145.53125 Z M 198.09375 129.53125 "/>
<g style="fill:rgb(0%,0%,100%);fill-opacity:1;">
  <use xlink:href="#glyph0-2" x="198.09375" y="141.907227"/>
  <use xlink:href="#glyph0-3" x="208.063477" y="141.907227"/>
</g>
<path style="fill:none;stroke-width:1.2;stroke-linecap:butt;stroke-linejoin:miter;stroke:rgb(0%,0%,0%);stroke-opacity:1;stroke-miterlimit:10;" d="M 181.207031 156.378906 L 151.441406 142.519531 "/>
<path style="fill:none;stroke-width:1.2;stroke-linecap:butt;stroke-linejoin:miter;stroke:rgb(0%,0%,0%);stroke-opacity:1;stroke-miterlimit:10;" d="M 151.441406 142.519531 L 124.550781 161.367188 "/>
<path style="fill:none;stroke-width:1.2;stroke-linecap:butt;stroke-linejoin:miter;stroke:rgb(0%,0%,0%);stroke-opacity:1;stroke-miterlimit:10;" d="M 120.703125 161.707031 L 122.144531 178.0625 "/>
<path style="fill:none;stroke-width:1.2;stroke-linecap:butt;stroke-linejoin:miter;stroke:rgb(100%,0%,0%);stroke-opacity:1;stroke-miterlimit:10;" d="M 122.144531 178.0625 L 123.582031 194.417969 "/>
<path style="fill:none;stroke-width:1.2;stroke-linecap:butt;stroke-linejoin:miter;stroke:rgb(0%,0%,0%);stroke-opacity:1;stroke-miterlimit:10;" d="M 128.398438 161.027344 L 129.839844 177.382812 "/>
<path style="fill:none;stroke-width:1.2;stroke-linecap:butt;stroke-linejoin:miter;stroke:rgb(100%,0%,0%);stroke-opacity:1;stroke-miterlimit:10;" d="M 129.839844 177.382812 L 131.28125 193.738281 "/>
<path style="fill:none;stroke-width:1.2;stroke-linecap:butt;stroke-linejoin:miter;stroke:rgb(0%,0%,0%);stroke-opacity:1;stroke-miterlimit:10;" d="M 124.550781 161.367188 L 94.785156 147.507812 "/>
<path style=" stroke:none;fill-rule:nonzero;fill:rgb(100%,100%,100%);fill-opacity:1;" d="M 122.429688 186.078125 L 133.429688 186.078125 L 133.429688 202.078125 L 122.429688 202.078125 Z M 122.429688 186.078125 "/>
<g style="fill:rgb(100%,0%,0%);fill-opacity:1;">
  <use xlink:href="#glyph0-1" x="122.429688" y="198.454102"/>
</g>
<path style="fill:none;stroke-width:1.2;stroke-linecap:butt;stroke-linejoin:miter;stroke:rgb(0%,0%,0%);stroke-opacity:1;stroke-miterlimit:10;" d="M 94.785156 147.507812 L 67.898438 166.355469 "/>
<path style="fill:none;stroke-width:1.2;stroke-linecap:butt;stroke-linejoin:miter;stroke:rgb(0%,0%,0%);stroke-opacity:1;stroke-miterlimit:10;" d="M 87.660156 143.066406 L 66.152344 158.144531 "/>
<path style="fill:none;stroke-width:1.2;stroke-linecap:butt;stroke-linejoin:miter;stroke:rgb(0%,0%,0%);stroke-opacity:1;stroke-miterlimit:10;" d="M 91.90625 114.796875 L 94.785156 147.507812 "/>
<path style="fill:none;stroke-width:1.2;stroke-linecap:butt;stroke-linejoin:miter;stroke:rgb(0%,0%,0%);stroke-opacity:1;stroke-miterlimit:10;" d="M 67.898438 166.355469 L 38.128906 152.492188 "/>
<path style="fill:none;stroke-width:1.2;stroke-linecap:butt;stroke-linejoin:miter;stroke:rgb(0%,0%,0%);stroke-opacity:1;stroke-miterlimit:10;" d="M 67.898438 166.355469 L 70.777344 199.066406 "/>
<path style="fill:none;stroke-width:1.2;stroke-linecap:butt;stroke-linejoin:miter;stroke:rgb(0%,0%,0%);stroke-opacity:1;stroke-miterlimit:10;" d="M 38.128906 152.492188 L 35.25 119.785156 "/>
<path style="fill:none;stroke-width:1.2;stroke-linecap:butt;stroke-linejoin:miter;stroke:rgb(0%,0%,0%);stroke-opacity:1;stroke-miterlimit:10;" d="M 45.539062 148.546875 L 43.234375 122.378906 "/>
<path style="fill:none;stroke-width:1.2;stroke-linecap:butt;stroke-linejoin:miter;stroke:rgb(0%,0%,0%);stroke-opacity:1;stroke-miterlimit:10;" d="M 35.25 119.785156 L 62.136719 100.933594 "/>
<path style="fill:none;stroke-width:1.2;stroke-linecap:butt;stroke-linejoin:miter;stroke:rgb(0%,0%,0%);stroke-opacity:1;stroke-miterlimit:10;" d="M 62.136719 100.933594 L 91.90625 114.796875 "/>
<path style="fill:none;stroke-width:1.2;stroke-linecap:butt;stroke-linejoin:miter;stroke:rgb(0%,0%,0%);stroke-opacity:1;stroke-miterlimit:10;" d="M 61.851562 109.324219 L 85.667969 120.414062 "/>
<path style="fill:none;stroke-width:1.2;stroke-linecap:butt;stroke-linejoin:miter;stroke:rgb(0%,0%,0%);stroke-opacity:1;stroke-miterlimit:10;" d="M 62.136719 100.933594 L 60.699219 84.582031 "/>
<path style="fill:none;stroke-width:1.2;stroke-linecap:butt;stroke-linejoin:miter;stroke:rgb(100%,0%,0%);stroke-opacity:1;stroke-miterlimit:10;" d="M 60.699219 84.582031 L 59.257812 68.226562 "/>
<path style="fill:none;stroke-width:1.2;stroke-linecap:butt;stroke-linejoin:miter;stroke:rgb(100%,0%,0%);stroke-opacity:1;stroke-miterlimit:10;" d="M 59.257812 68.226562 L 72.703125 58.800781 "/>
<path style="fill:none;stroke-width:1.2;stroke-linecap:butt;stroke-linejoin:miter;stroke:rgb(0%,0%,0%);stroke-opacity:1;stroke-miterlimit:10;" d="M 72.703125 58.800781 L 86.144531 49.375 "/>
<path style=" stroke:none;fill-rule:nonzero;fill:rgb(100%,100%,100%);fill-opacity:1;" d="M 54.257812 60.226562 L 65.257812 60.226562 L 65.257812 76.226562 L 54.257812 76.226562 Z M 54.257812 60.226562 "/>
<g style="fill:rgb(100%,0%,0%);fill-opacity:1;">
  <use xlink:href="#glyph0-1" x="54.257812" y="72.602539"/>
</g>
<path style="fill:none;stroke-width:1.2;stroke-linecap:butt;stroke-linejoin:miter;stroke:rgb(0%,0%,0%);stroke-opacity:1;stroke-miterlimit:10;" d="M 70.777344 199.066406 L 57.332031 208.488281 "/>
<path style="fill:none;stroke-width:1.2;stroke-linecap:butt;stroke-linejoin:miter;stroke:rgb(0%,0%,100%);stroke-opacity:1;stroke-miterlimit:10;" d="M 57.332031 208.488281 L 43.886719 217.914062 "/>
<path style="fill:none;stroke-width:1.2;stroke-linecap:butt;stroke-linejoin:miter;stroke:rgb(0%,0%,100%);stroke-opacity:1;stroke-miterlimit:10;" d="M 40.039062 218.253906 L 41.480469 234.605469 "/>
<path style="fill:none;stroke-width:1.2;stroke-linecap:butt;stroke-linejoin:miter;stroke:rgb(100%,0%,0%);stroke-opacity:1;stroke-miterlimit:10;" d="M 41.480469 234.605469 L 42.917969 250.960938 "/>
<path style="fill:none;stroke-width:1.2;stroke-linecap:butt;stroke-linejoin:miter;stroke:rgb(0%,0%,100%);stroke-opacity:1;stroke-miterlimit:10;" d="M 47.734375 217.574219 L 49.175781 233.929688 "/>
<path style="fill:none;stroke-width:1.2;stroke-linecap:butt;stroke-linejoin:miter;stroke:rgb(100%,0%,0%);stroke-opacity:1;stroke-miterlimit:10;" d="M 49.175781 233.929688 L 50.617188 250.285156 "/>
<path style=" stroke:none;fill-rule:nonzero;fill:rgb(100%,100%,100%);fill-opacity:1;" d="M 38.886719 209.914062 L 48.886719 209.914062 L 48.886719 225.914062 L 38.886719 225.914062 Z M 38.886719 209.914062 "/>
<g style="fill:rgb(0%,0%,100%);fill-opacity:1;">
  <use xlink:href="#glyph0-2" x="38.886719" y="222.290039"/>
</g>
<path style=" stroke:none;fill-rule:nonzero;fill:rgb(100%,100%,100%);fill-opacity:1;" d="M 41.765625 242.625 L 52.765625 242.625 L 52.765625 258.625 L 41.765625 258.625 Z M 41.765625 242.625 "/>
<g style="fill:rgb(100%,0%,0%);fill-opacity:1;">
  <use xlink:href="#glyph0-1" x="41.765625" y="255.000977"/>
</g>
</g>
</svg>

<svg xmlns="http://www.w3.org/2000/svg" xmlns:xlink="http://www.w3.org/1999/xlink" width="300pt" height="300pt" viewBox="0 0 300 300"><defs><symbol overflow="visible"><path d="M.64 2.297v-11.47h6.5v11.47zm.735-.72h5.047V-8.436H1.375zm0 0"/></symbol><symbol overflow="visible" id="a"><path d="M5.125-8.61c-.938 0-1.684.352-2.234 1.047-.542.688-.812 1.633-.812 2.83 0 1.198.27 2.147.813 2.842.55.687 1.297 1.03 2.235 1.03.926 0 1.66-.343 2.203-1.03.55-.696.828-1.645.828-2.844 0-1.196-.277-2.14-.828-2.829-.543-.695-1.277-1.046-2.203-1.046zm0-1.046c1.32 0 2.38.45 3.172 1.344.8.898 1.203 2.09 1.203 3.578 0 1.5-.402 2.7-1.203 3.593C7.504-.255 6.445.186 5.125.186c-1.336 0-2.402-.44-3.203-1.328C1.13-2.036.734-3.235.734-4.735c0-1.49.395-2.68 1.188-3.579.8-.894 1.867-1.343 3.203-1.343zm0 0"/></symbol><symbol overflow="visible" id="b"><path d="M1.28-9.484H3l4.203 7.937v-7.937h1.25V0H6.72L2.515-7.922V0H1.28zm0 0"/></symbol><symbol overflow="visible" id="c"><path d="M1.28-9.484h1.282v3.89H7.22v-3.89H8.5V0H7.22v-4.516H2.562V0H1.28zm0 0"/></symbol></defs><g><path fill="#fff" d="M0 0h300v300H0z"/><path d="M264.75 132.543l-26.887 18.852M234.016 151.73l1.437 16.356" stroke-width="1.2" stroke="#000" stroke-miterlimit="10" fill="none"/><path d="M235.453 168.086l1.442 16.355" stroke-width="1.2" stroke="#f00" stroke-miterlimit="10" fill="none"/><path d="M241.71 151.055l1.438 16.355" stroke-width="1.2" stroke="#000" stroke-miterlimit="10" fill="none"/><path d="M243.148 167.41l1.442 16.356" stroke-width="1.2" stroke="#f00" stroke-miterlimit="10" fill="none"/><path d="M237.863 151.395l-14.886-6.934" stroke-width="1.2" stroke="#000" stroke-miterlimit="10" fill="none"/><path d="M222.977 144.46l-14.883-6.93" stroke-width="1.2" stroke="#00f" stroke-miterlimit="10" fill="none"/><path d="M235.742 176.102h11v16h-11zm0 0" fill="#fff"/><use xlink:href="#a" x="235.742" y="188.478" fill="#f00"/><path d="M208.094 137.53l-13.442 9.427" stroke-width="1.2" stroke="#00f" stroke-miterlimit="10" fill="none"/><path d="M194.652 146.957l-13.445 9.422" stroke-width="1.2" stroke="#000" stroke-miterlimit="10" fill="none"/><path d="M198.094 129.53h20v16h-20zm0 0" fill="#fff"/><g fill="#00f"><use xlink:href="#b" x="198.094" y="141.907"/><use xlink:href="#c" x="208.063" y="141.907"/></g><path d="M181.207 156.38l-29.766-13.86M151.44 142.52l-26.89 18.847M120.703 161.707l1.442 16.356" stroke-width="1.2" stroke="#000" stroke-miterlimit="10" fill="none"/><path d="M122.145 178.063l1.437 16.355" stroke-width="1.2" stroke="#f00" stroke-miterlimit="10" fill="none"/><path d="M128.398 161.027l1.442 16.356" stroke-width="1.2" stroke="#000" stroke-miterlimit="10" fill="none"/><path d="M129.84 177.383l1.44 16.355" stroke-width="1.2" stroke="#f00" stroke-miterlimit="10" fill="none"/><path d="M124.55 161.367l-29.765-13.86" stroke-width="1.2" stroke="#000" stroke-miterlimit="10" fill="none"/><path d="M122.43 186.078h11v16h-11zm0 0" fill="#fff"/><use xlink:href="#a" x="122.43" y="198.454" fill="#f00"/><path d="M94.785 147.508l-26.887 18.847M87.66 143.066l-21.508 15.08M91.906 114.797l2.88 32.71M67.898 166.355l-29.77-13.863M67.898 166.355l2.88 32.71M38.13 152.492l-2.88-32.707M45.54 148.547l-2.306-26.168M35.25 119.785l26.887-18.85M62.137 100.934l29.77 13.863M61.852 109.324l23.816 11.09M62.137 100.934L60.7 84.582" stroke-width="1.2" stroke="#000" stroke-miterlimit="10" fill="none"/><path d="M60.7 84.582l-1.442-16.355M59.258 68.227L72.703 58.8" stroke-width="1.2" stroke="#f00" stroke-miterlimit="10" fill="none"/><path d="M72.703 58.8l13.442-9.425" stroke-width="1.2" stroke="#000" stroke-miterlimit="10" fill="none"/><path d="M54.258 60.227h11v16h-11zm0 0" fill="#fff"/><use xlink:href="#a" x="54.258" y="72.603" fill="#f00"/><path d="M70.777 199.066l-13.445 9.422" stroke-width="1.2" stroke="#000" stroke-miterlimit="10" fill="none"/><path d="M57.332 208.488l-13.445 9.426M40.04 218.254l1.44 16.35" stroke-width="1.2" stroke="#00f" stroke-miterlimit="10" fill="none"/><path d="M41.48 234.605l1.438 16.356" stroke-width="1.2" stroke="#f00" stroke-miterlimit="10" fill="none"/><path d="M47.734 217.574l1.442 16.356" stroke-width="1.2" stroke="#00f" stroke-miterlimit="10" fill="none"/><path d="M49.176 233.93l1.44 16.355" stroke-width="1.2" stroke="#f00" stroke-miterlimit="10" fill="none"/><path d="M38.887 209.914h10v16h-10zm0 0" fill="#fff"/><use xlink:href="#b" x="38.887" y="222.29" fill="#00f"/><path d="M41.766 242.625h11v16h-11zm0 0" fill="#fff"/><use xlink:href="#a" x="41.766" y="255.001" fill="#f00"/></g></svg>
